icon/mi/farm.svg

<?xml version="1.0" encoding="UTF-8"?>
<svg viewBox="0 0 15 15" xmlns="http://www.w3.org/2000/svg" id="farm" height="1em" width="1em">
  <path d="m8 6-3-2-3 2-1 2v4h2v-2h4v2h2v-4zm-2 2h-2v-2h2zm8 4h-3v-9.5c0-.39782.158-.77936.4393-1.06066s.6629-.43934 1.0607-.43934.7794.15804 1.0607.43934.4393.66284.4393 1.06066z"/>
</svg>

<svg height="15" width="15" xmlns="http://www.w3.org/2000/svg"><path d="M8 6 5 4 2 6 1 8v4h2v-2h4v2h2V8zM6 8H4V6h2zm8 4h-3V2.5a1.5 1.5 0 1 1 3 0z"/></svg>
